packages/katcn/src/icons/svg/arrow3.svg

<svg width="24" height="25" viewBox="0 0 24 25" fill="none" xmlns="http://www.w3.org/2000/svg">
<path d="M12.2 22.296C11.8 22.296 11.3 22.1959 10.9 21.9956C9.7 21.4949 9 20.2932 9 18.9915V17.189H3.8C2.2 17.189 1 15.8872 1 14.285V10.3797C1 8.77747 2.3 7.47568 3.8 7.47568H9V5.57308C9 4.27129 9.7 3.06965 10.9 2.56896C12 2.06827 13.3 2.26855 14.3 3.06965L21.9 9.77884C22.6 10.3797 23 11.2809 23 12.2823C23 13.2836 22.6 14.1849 21.9 14.7857L14.3 21.4949C13.7 21.9956 12.9 22.296 12.2 22.296ZM3.8 9.47843C3.4 9.47843 3 9.87898 3 10.3797V14.1849C3 14.6856 3.4 15.0861 3.8 15.0861H10C10.6 15.0861 11 15.4867 11 16.0875V18.8913C11 19.5923 11.4 19.9928 11.8 20.093C12 20.1931 12.5 20.2932 13 19.8927L20.6 13.1835C20.9 12.8831 21.1 12.5827 21.1 12.1821C21.1 11.7816 20.9 11.381 20.6 11.1808L13 4.47157C12.5 4.07102 12 4.17116 11.8 4.27129C11.4 4.5717 11 4.97225 11 5.57308V8.37692C11 8.97774 10.6 9.37829 10 9.37829H3.8V9.47843Z" fill="black"/>
</svg>

<svg xmlns="http://www.w3.org/2000/svg" fill="none" viewBox="0 0 24 25"><path fill="#000" d="M12.2 22.296c-.4 0-.9-.1-1.3-.3-1.2-.501-1.9-1.703-1.9-3.004v-1.803H3.8c-1.6 0-2.8-1.302-2.8-2.904V10.38c0-1.603 1.3-2.904 2.8-2.904H9V5.573c0-1.302.7-2.503 1.9-3.004 1.1-.5 2.4-.3 3.4.5l7.6 6.71c.7.6 1.1 1.502 1.1 2.503s-.4 1.903-1.1 2.504l-7.6 6.709c-.6.5-1.4.801-2.1.801M3.8 9.478c-.4 0-.8.401-.8.902v3.805c0 .5.4.901.8.901H10c.6 0 1 .4 1 1.001v2.804c0 .701.4 1.102.8 1.202.2.1.7.2 1.2-.2l7.6-6.71c.3-.3.5-.6.5-1 0-.401-.2-.802-.5-1.002L13 4.47c-.5-.4-1-.3-1.2-.2-.4.3-.8.701-.8 1.302v2.804c0 .6-.4 1.001-1 1.001H3.8z"/></svg>
